X:1
T:St. Nicholas (Greene), CM
T:Maurice Greene (1696-1755)
T:St. Nicholas (Greene), CM
T:Public Domain
C:Maurice Greene (1696-1755)
Z:Public Domain
%%score ( 1 2 ) ( 3 4 )
L:1/8
M:3/4
K:G
V:1 treble 
V:2 treble 
V:3 bass 
V:4 bass 
V:1
 E2 | [EG]4 [FB]2 | [Ge]4 [EB]2 | c2 B2 [^DA]2 | [EG]4 [^DF]2 | E4 [^DF]2 | [EG]4 [EA]2 | %7
 [^DB]4 [=DB]2 | [Dd]4 [DB]2 | [FA]4 [GB]2 | [EG]4 [FA]2 | [^DF]4 [DB]2 | [Ee]2 [F^d]2 [Ge]2 | %13
 [EG]4 [^DF]2 | E4 |] %15
V:2
 E2 | x6 | x6 | E4 x2 | x6 | E4 x2 | x6 | x6 | x6 | x6 | x6 | x6 | x6 | x6 | E4 |] %15
V:3
 [E,G,]2 | [E,B,]4 [D,B,]2 | [C,G,]4 [G,,B,]2 | [A,,A,]2 [B,,G,]2 [B,,F,]2 | E,4 [B,,B,]2 | %5
 [G,B,]4 [F,A,]2 | [E,B,]4 [E,A,]2 | [B,,F,]4 G,2 | [F,A,]4 [G,D]2 | [D,D]4 [B,,D]2 | %10
 [C,C]4 [A,,C]2 | [B,,B,]4 B,2 | [G,B,]2 [F,A,]2 [E,G,]2 | [B,,B,]4 [B,,B,]2 | [E,G,]4 |] %15
V:4
 x2 | x6 | x6 | x6 | E,4 x2 | x6 | x6 | x4 G,2 | x6 | x6 | x6 | x4 B,2 | x6 | x6 | x4 |] %15

